**kern	**kern	**kern	**kern
*MM60	*MM60	*MM60	*MM60
*k[b-]	*k[b-]	*k[b-]	*k[b-]
*M2/2	*M2/2	*M2/2	*M2/2
*tb32	*tb32	*tb32	*tb32
=1	=1	=1	=1
1r	1F	1r	1r
=2	=2	=2	=2
1r	2E	1r	1r
.	2E-	.	.
=3	=3	=3	=3
1r	2D	1r	1r
.	[2B-	.	.
=4	=4	=4	=4
1r	2B-]	1r	1r
.	2A	.	.
=5	=5	=5	=5
1r	1G	1r	1r
=6	=6	=6	=6
1r	4F	1c	1r
.	4G	.	.
.	[2A	.	.
=7	=7	=7	=7
1r	4A]	2B	1r
.	8D	.	.
.	8C	.	.
.	4D	2B-	.
.	4E	.	.
=8	=8	=8	=8
1r	4F	2A	1r
.	4G	.	.
.	4A	[2f	.
.	4B	.	.
=9	=9	=9	=9
1r	4c	2f]	1r
.	4G	.	.
.	[2c	2e	.
=10	=10	=10	=10
1r	2c]	1d	1r
.	[2B-	.	.
=11	=11	=11	=11
1r	4B-]	[1c	1r
.	8A	.	.
.	8G	.	.
.	4A	.	.
.	4F	.	.
=12	=12	=12	=12
1r	4D	4c]	1f
.	2GG	8B	.
.	.	8c	.
.	.	[2d	.
.	8AA	.	.
.	8BB	.	.
=13	=13	=13	=13
1r	2.C	4d]	2e
.	.	8G	.
.	.	8F	.
.	.	4G	2e-
.	4C	4A	.
=14	=14	=14	=14
1r	2.G	4B-	2d
.	.	4c	.
.	.	4d	[2b-
.	8F	4e	.
.	8E	.	.
=15	=15	=15	=15
1r	4D	4f	2b-]
.	4E	4c	.
.	4F	[2f	2a
.	4AA	.	.
=16	=16	=16	=16
1r	4BB-	2f]	1g
.	4GG	.	.
.	4C	[2e	.
.	4BB-	.	.
=17	=17	=17	=17
1r	4AA	2e]	1f
.	4A	.	.
.	4B	[2d	.
.	4G	.	.
=18	=18	=18	=18
1C	4c	2d]	4e
.	4G	.	8f
.	.	.	8g
.	4E	4c	[2a
.	4C	8d	.
.	.	8e	.
=19	=19	=19	=19
2BB	4D	2f	4a]
.	8G	.	8d
.	8A	.	8c
2BB-	4B-	2g	4d
.	[4c	.	4e
=20	=20	=20	=20
2AA	4c]	2c	4f
.	4B-	.	4g
[2F	4c	2r	4a
.	4d	.	4b
=21	=21	=21	=21
2F]	4G	4r	4cc
.	2cc	8g	4g
.	.	8f	.
2E	.	4g	[2cc
.	4G	4e	.
=22	=22	=22	=22
1D	4A	[1f	2cc]
.	8d	.	.
.	8c	.	.
.	4d	.	2b
.	4D	.	.
=23	=23	=23	=23
[1C	4G	4f]	2.cc
.	8A	8e	.
.	8B	8d	.
.	4c	4e	.
.	4E	4G	4b-
=24	=24	=24	=24
2C]	4F#	2d	4a
.	8G	.	8dd
.	8A	.	8cc
[2BB-	8B-	4r	4dd
.	8A	.	.
.	8B-	[4g	4d
.	8G	.	.
=25	=25	=25	=25
2BB-]	4E	4g]	2c
.	8F	8a	.
.	8G	8b-	.
[2AA	8A	2cc	4r
.	8G	.	.
.	8A	.	[4f
.	8F	.	.
=26	=26	=26	=26
4AA]	2.B-	2.d	4f]
8GG	.	.	8g
8FF	.	.	8a
4GG	.	.	4b-
4AA	[4A	[4c	4cc
=27	=27	=27	=27
4BB-	4A]	4c]	4dd
4C	4G	4B-	4ee
4D	4F	4A	4ff
4E	4A	4r	8ee
.	.	.	8dd
=28	=28	=28	=28
4F	4A	1r	2.cc
4C	8B-	.	.
.	8c	.	.
[2F	[2d	.	.
.	.	.	8b-
.	.	.	8a
=29	=29	=29	=29
2F]	4d]	1r	2.b-
.	8c	.	.
.	8B-	.	.
[2E	[2c	.	.
.	.	.	8a
.	.	.	8g
=30	=30	=30	=30
2E]	4c]	1f	2a
.	8F	.	.
.	8E	.	.
2D	4F	.	2b
.	4G	.	.
=31	=31	=31	=31
2C	4A	2e	4cc
.	4B	.	8g
.	.	.	8f
4r	2c	2e-	4g
4CC	.	.	4a
=32	=32	=32	=32
2GG	8B-	2d	4b-
.	8c	.	.
.	8B-	.	4cc
.	8A	.	.
4r	8G	[2b-	4dd
.	8F	.	.
4GG	8G	.	4ee
.	8A	.	.
=33	=33	=33	=33
4D	8F	2b-]	4ff
.	8G	.	.
8AA	8A	.	4cc
8GG	8B-	.	.
4AA	[2c	2a	[2ff
4BB-	.	.	.
=34	=34	=34	=34
4C	8c]	[1g	2ff]
.	8B	.	.
4D	8c	.	.
.	8B	.	.
4E	[2c	.	2ee
4F	.	.	.
=35	=35	=35	=35
4G	4c]	2.g]	1dd
4A	8B-	.	.
.	8c	.	.
[2B-	2d	.	.
.	.	4f	.
=36	=36	=36	=36
2B-]	2.c	4e	4g
.	.	8f	8cc
.	.	8g	8b-
[2A	.	2f	4cc
.	8c	.	4dd
.	8B	.	.
=37	=37	=37	=37
4A]	4c	4e	4ee
8G	4d	8b-	4ff
8A	.	8cc	.
4G	4e	4b-	4gg
4F	4f	4a	4aa
=38	=38	=38	=38
4E	4g	4g	[1bb-
4D	4r	4f	.
4C	2r	4e	.
4BB-	.	8f	.
.	.	8g	.
=39	=39	=39	=39
4AA	1c	4c	2bb-]
4GG	.	8d	.
.	.	8e	.
4FF	.	[2f	[2aa
4EE	.	.	.
=40	=40	=40	=40
[1DD	2B	4f]	2aa]
.	.	8d	.
.	.	8c	.
.	2B-	4d	[2gg
.	.	4e	.
=41	=41	=41	=41
2DD]	2A	4f	4gg]
.	.	4g	8ff
.	.	.	8ee
2r	[2f	4a	4ff
.	.	4b	4gg
=42	=42	=42	=42
4r	2f]	4cc	4aa
8E	.	4g	4bb
8D	.	.	.
4E	2e	[2cc	4ccc
4F	.	.	8bb
.	.	.	8aa
=43	=43	=43	=43
4G	1d	2cc]	8gg
.	.	.	8ff
4F	.	.	8ee
.	.	.	8ff
4G	.	2b	[2ffT
4GG	.	.	.
=44	=44	=44	=44
2C	2.c	4cc	4.ff]
.	.	8g	.
.	.	8a	16ee
.	.	.	16ff
2r	.	4g	4ee
.	8C	4f	4dd
.	8BB	.	.
=45	=45	=45	=45
1r	4C	4e	4cc
.	4D	4d	2b-
.	4E	[2c	.
.	4F	.	8a
.	.	.	8g
=46	=46	=46	=46
1r	4E-	4c]	4a
.	4D	4B-	4b-
.	4C	4A	4cc
.	4BB-	4G	4dd
=47	=47	=47	=47
1r	4AA	4F	2ee-
.	8BB-	2cc	.
.	8AA	.	.
.	4BB-	.	[2dd
.	4C	8b-	.
.	.	8a	.
=48	=48	=48	=48
1r	4D	2.b-	4dd]
.	4E	.	4gg
.	4F	.	[2cc
.	4G	8a	.
.	.	8g	.
=49	=49	=49	=49
1F	4A	1f	2.cc]
.	8B-	.	.
.	8c	.	.
.	[2d	.	.
.	.	.	8b-
.	.	.	8a
=50	=50	=50	=50
2E	4d]	4g	4g
.	8G	4r	2cc
.	8F	.	.
2E-	4G	2r	.
.	4A	.	[4ff
=51	=51	=51	=51
2D	4B-	4r	4ff]
.	4c	8f	4ee-
.	.	8e-	.
[2B-	4d	4f	2dd
.	4e	4g	.
=52	=52	=52	=52
2B-]	4f	4a	2cc
.	4c	4b-	.
2A	[2f	4cc	2r
.	.	8b-	.
.	.	8a	.
=53	=53	=53	=53
1G	2f]	4b-	1r
.	.	4cc	.
.	[2e-	4dd	.
.	.	4ee-	.
=54	=54	=54	=54
[1F	2e-]	4a	1r
.	.	8g	.
.	.	8f	.
.	4d	[2b-	.
.	8c	.	.
.	8B-	.	.
=55	=55	=55	=55
2F]	4c	4b-]	1r
.	8F	8a	.
.	8E	8g	.
[2E-	4F	4a	.
.	4G	4b-	.
=56	=56	=56	=56
2E-]	4A	4cc	1ff
.	4B-	2f	.
[2D	4c	.	.
.	4d	[4b-	.
=57	=57	=57	=57
4D]	4G	4b-]	2ee
8GG	8B-	2dd	.
8FF	8A	.	.
4GG	4B-	.	2ee-
4AA	4c	[4cc	.
=58	=58	=58	=58
4BB-	4d	4cc]	2dd
4AA	4e	8b-	.
.	.	8a	.
4D	4f	4b-	[2bb-
4E	4g	4cc	.
=59	=59	=59	=59
4F	4f	4dd	2bb-]
4C	8e	4ee	.
.	8d	.	.
[2F	4c	8ff	2aa
.	.	8ee	.
.	4f	8dd	.
.	.	8cc	.
=60	=60	=60	=60
2F]	2d	8b	[1gg
.	.	8a	.
.	.	8b	.
.	.	8cc#	.
2E	2e	8dd	.
.	.	8cc#	.
.	.	8b	.
.	.	8cc#	.
=61	=61	=61	=61
[1D	4A	4dd	4gg]
.	8d	4f	8ff
.	8e-	.	8gg
.	4d	4g	4ff
.	4c	4a	4ee-
=62	=62	=62	=62
4D]	4B-	4b-	4dd
8G	4A	4f#	4cc
8A	.	.	.
4G	4B-	[2g	[2b-
4F	4d	.	.
=63	=63	=63	=63
4E	[1G	4g]	2.b-]
4D	.	4f	.
4C	.	[2e	.
4BB-	.	.	8cc
.	.	.	8dd
=64	=64	=64	=64
[1AA	4G]	2e]	4cc
.	8c	.	4b-
.	8d	.	.
.	4c	4f	4a
.	4B-	8e	4g
.	.	8d	.
=65	=65	=65	=65
2.AA]	4A	2c	4f
.	4G	.	4e-
.	2F	[2B-	8d
.	.	.	8e
8BB-	.	.	8d
8C	.	.	8e
=66	=66	=66	=66
4BB-	2G	2B-]	4.eT
4AA	.	.	.
.	.	.	16d
.	.	.	16e
4GG	2A	[2c	4.fT
4FF	.	.	.
.	.	.	16e
.	.	.	16f
=67	=67	=67	=67
4EE	4G	2c]	4.gT
4CC	8F	.	.
.	8E	.	16f
.	.	.	16g
[2FF	4F	2r	4a
.	4G	.	4b
=68	=68	=68	=68
4FF]	4A	1r	4cc
4DD	4B	.	4ff
4AA	[2c	.	4ee
4FF	.	.	8aa
.	.	.	8gg
=69	=69	=69	=69
1GG	2c]	4r	8ff
.	.	.	8ee
.	.	8g	8dd
.	.	8a	8cc
.	2B	4g	4ee
.	.	4f	4ddT
=70	=70	=70	=70
2CC	2c	4e	2.cc
.	.	4d	.
2r	2r	[2c	.
.	.	.	8ee
.	.	.	8cc
=71	=71	=71	=71
1r	1r	4c]	4gg
.	.	4B	8dd
.	.	.	8ff
.	.	8c	4ee
.	.	8g	.
.	.	8e	8gg
.	.	8g	8ee
=72	=72	=72	=72
1r	1r	8a	4ff
.	.	8b-	.
.	.	8a	8cc
.	.	8g	8ee
.	.	[2f	4dd
.	.	.	8ff
.	.	.	8dd
=73	=73	=73	=73
1r	1r	8f]	4bb
.	.	8d	.
.	.	8e	2gg
.	.	8f	.
.	.	8e	.
.	.	8d	.
.	.	8c	[4ccc
.	.	8d	.
=74	=74	=74	=74
1r	1r	8e	4ccc]
.	.	8f	.
.	.	8g	8bb
.	.	8a	8aa
.	.	8b	4gg
.	.	8cc	.
.	.	8dd	4ff
.	.	8b	.
=75	=75	=75	=75
1r	1r	4cc	8ee
.	.	.	8ff
.	.	8g	8ee
.	.	8b-	8dd
.	.	4a	8cc
.	.	.	8dd
.	.	8cc	8ee
.	.	8a	8ff
=76	=76	=76	=76
1r	1r	4b-	8gg
.	.	.	8bb-
.	.	8f	8aa
.	.	8a	8ccc
.	.	4g	8bb-
.	.	.	8aa
.	.	8b-	8gg
.	.	8g	8bb-
=77	=77	=77	=77
1r	1r	8r	8cc
.	.	8ee	8bb-
.	.	2cc	8aa
.	.	.	8gg
.	.	.	8aa
.	.	.	8ccc
.	.	[4ff	8bb-
.	.	.	8aa
=78	=78	=78	=78
1r	1r	4ff]	[1gg
.	.	8ee	.
.	.	8dd	.
.	.	4cc	.
.	.	4b-	.
=79	=79	=79	=79
1r	1r	4a	8gg]
.	.	.	8ff
.	.	4g	8ee
.	.	.	8gg
.	.	[2a	8ff
.	.	.	8ee
.	.	.	8dd
.	.	.	8cc
=80	=80	=80	=80
1r	1r	8a]	[1b-
.	.	8g	.
.	.	8f	.
.	.	8a	.
.	.	8g	.
.	.	8f	.
.	.	8e	.
.	.	8d	.
=81	=81	=81	=81
1r	2.F	4c	8b-]
.	.	.	8a
.	.	4B-	8g
.	.	.	8b-
.	.	4c	8a
.	.	.	8g
.	8A	[4f	8f
.	8F	.	8a
=82	=82	=82	=82
1r	4c	4f]	2g
.	8G	4e	.
.	8B-	.	.
.	4A	[2f	4r
.	8c	.	8a
.	8A	.	8cc
=83	=83	=83	=83
1r	4B-	4f]	2.dd
.	8F	8a	.
.	8A	8cc	.
.	4G	[2b-	.
.	8B-	.	4gg
.	8G	.	.
=84	=84	=84	=84
1r	4e	8b-]	[2cc
.	.	8b-	.
.	2c	8a	.
.	.	8g	.
.	.	2a	8cc]
.	.	.	8b-
.	[4f	.	8cc
.	.	.	8dd
=85	=85	=85	=85
1r	4f]	[1g	[1b-
.	8e	.	.
.	8d	.	.
.	4c	.	.
.	4B-	.	.
=86	=86	=86	=86
1r	4A	8g]	2b-]
.	.	8f	.
.	4G	8e	.
.	.	8g	.
.	4A	8f	[2a
.	.	8e	.
.	4F	8d	.
.	.	8c	.
=87	=87	=87	=87
1r	4G	4B	8a]
.	.	.	8g
.	4A	4c	8f
.	.	.	8a
.	4B	4d	8g
.	.	.	8f
.	4G	4B	8e
.	.	.	8d
=88	=88	=88	=88
1r	8C	2c	4e
.	8BB	.	.
.	8C	.	4g
.	8E	.	.
.	8D	4r	[2cc
.	8C	.	.
.	8BB	8e	.
.	8AA	8c	.
=89	=89	=89	=89
1r	4GG	4g	4cc]
.	4r	8d	4b
.	.	8f	.
.	4r	4e	8cc
.	.	.	8gg
.	4c	8g	8ee
.	.	8e	8gg
=90	=90	=90	=90
1r	4F	4f	8aa
.	.	.	8bb-
.	4r	8c	8aa
.	.	8e	8gg
.	4r	4d	[2ff
.	4d	8f	.
.	.	8d	.
=91	=91	=91	=91
1r	4G	4b	8ff]
.	.	.	8dd
.	4c	2g	8ee
.	.	.	8ff
.	4B	.	8ee
.	.	.	8dd
.	4A	[4cc	8cc
.	.	.	8dd
=92	=92	=92	=92
1r	4G	4cc]	8ee
.	.	.	8ff
.	4r	8b	8gg
.	.	8a	8aa
.	4r	4g	8bb
.	.	.	8ccc
.	4G#	4f	8aa
.	.	.	8bb
=93	=93	=93	=93
1r	8A	4e	2ccc
.	8B	.	.
.	8c	2aa	.
.	8d	.	.
.	8e	.	2bb
.	8f	.	.
.	8d	4gg#	.
.	8e	.	.
=94	=94	=94	=94
1r	4f	8aa	[1aa
.	.	8dd	.
.	4e	8cc	.
.	.	8ee	.
.	4f	8dd	.
.	.	8cc	.
.	4d	8b	.
.	.	8a	.
=95	=95	=95	=95
1r	2.e	2cc	8aa]
.	.	.	8gg
.	.	.	8ff#
.	.	.	8aa
.	.	2b	8gg
.	.	.	8ff
.	4f	.	8ee
.	.	.	8dd
=96	=96	=96	=96
1r	8g	2b-	8cc#
.	8f	.	8dd
.	8e	.	8ee
.	8g	.	8cc#
.	8f	2a	8dd
.	8e	.	8ee
.	8d	.	[4ff
.	8c	.	.
=97	=97	=97	=97
1r	2B	4g	8ff]
.	.	.	8ee
.	.	4f	8dd
.	.	.	8ff
.	4B-	[2g	8ee
.	.	.	8dd
.	8A	.	8cc#
.	8G	.	8b
=98	=98	=98	=98
1r	4F	8g]	[1a
.	.	8f	.
.	4A	8e	.
.	.	8g	.
.	4d	8f	.
.	.	8e	.
.	4F	8d	.
.	.	8c	.
=99	=99	=99	=99
1r	4G	[1B-	8a]
.	.	.	8g
.	4D	.	8f
.	.	.	8a
.	4BB-	.	8g
.	.	.	8f
.	4GG	.	8e
.	.	.	8d
=100	=100	=100	=100
1r	4AA	8B-]	2c#
.	.	8A	.
.	4E	8G	.
.	.	8B-	.
.	4C#	8A	[2e
.	.	8G	.
.	4AA	8F	.
.	.	8E	.
=101	=101	=101	=101
1r	2.D	4F	8e]
.	.	.	8f
.	.	4A	8g
.	.	.	8e
.	.	4d	8f
.	.	.	8g
.	8F	4r	8a
.	8D	.	8b
=102	=102	=102	=102
1r	4A	1r	8cc#
.	.	.	8dd
.	8E	.	8ee
.	8G	.	8cc#
.	4F	.	8dd
.	.	.	8ee
.	8A	.	8ff
.	8F	.	8dd
=103	=103	=103	=103
1r	4G	8r	[1bb-
.	.	8aa	.
.	8D	8gg	.
.	8F	8ff	.
.	4E	8gg	.
.	.	8ff	.
.	8G	8ee	.
.	8E	8dd	.
=104	=104	=104	=104
1r	4c#	4ee	8bb-]
.	.	.	8aa
.	2A	4c#	8gg
.	.	.	8bb-
.	.	2f	8aa
.	.	.	8gg
.	[4d	.	8ff
.	.	.	8aa
=105	=105	=105	=105
1r	4d]	[2b-	8gg
.	.	.	8ff
.	8c	.	8ee
.	8B-	.	8gg
.	4A	8b-]	4cc
.	.	8e	.
.	4G	8f#	4r
.	.	8g	.
=106	=106	=106	=106
1r	4F#	8a	2r
.	.	8b-	.
.	4D	8cc	.
.	.	8a	.
.	8G	4b-	8r
.	8F#	.	8dd
.	8G	4r	8ee
.	8A	.	8ff#
=107	=107	=107	=107
1r	8B-	1r	8gg
.	8c	.	8aa
.	8d	.	8bb-
.	8B-	.	8gg
.	8e-	.	8ccc
.	8d	.	8bb-
.	8c	.	8aa
.	8e-	.	8gg
=108	=108	=108	=108
1r	8d	1r	8ff#
.	8c	.	8aa
.	8B-	.	8dd
.	8A	.	8cc
.	8G	.	8b-
.	8A	.	8a
.	8B-	.	8g
.	8G	.	8b-
=109	=109	=109	=109
1r	8c	1r	8e-
.	8B-	.	8g
.	8A	.	8a
.	8G	.	8b-
.	8F#	.	[2cc
.	8G	.	.
.	8A	.	.
.	8F#	.	.
=110	=110	=110	=110
1r	4BB-	2.G	8cc]
.	.	.	8ee-
.	4D	.	8dd
.	.	.	8cc
.	[2G	.	8b-
.	.	.	8a
.	.	8B-	8g
.	.	8G	8b-
=111	=111	=111	=111
1r	4G]	4d	2.a
.	4F#	8A	.
.	.	8c	.
.	8G	4B-	.
.	8D	.	.
.	8BB-	8d	[4g
.	8D	8B-	.
=112	=112	=112	=112
1r	8E-	4c	2g_
.	8F	.	.
.	8E-	8G	.
.	8D	8B-	.
.	[2C	4A	8g]
.	.	.	8ee-
.	.	8c	8a
.	.	8A	8cc
=113	=113	=113	=113
1r	8C]	4f#	[1dd
.	8AA	.	.
.	8BB-	2d	.
.	8C	.	.
.	8BB-	.	.
.	8AA	.	.
.	8GG	[4g	.
.	8AA	.	.
=114	=114	=114	=114
1r	8BB-	4g]	2dd]
.	8C	.	.
.	8D	8f	.
.	8E-	8e-	.
.	8F	4d	2r
.	8G	.	.
.	8A-	4c	.
.	8F	.	.
=115	=115	=115	=115
1r	8G	4B	1r
.	8F	.	.
.	8E-	[4G	.
.	8D	.	.
.	8E-	8G]	.
.	8F	8B	.
.	8E-	8c	.
.	8D	8d	.
=116	=116	=116	=116
1r	8C	8e-	1r
.	8D	8f	.
.	8E-	8g	.
.	8C	8e-	.
.	8F	8a-	.
.	8E-	8g	.
.	8D	8f	.
.	8C	8a-	.
=117	=117	=117	=117
1r	8BB	8g	1r
.	8D	8f	.
.	8G	8e-	.
.	8F	8d	.
.	8E-	8c	.
.	8D	8d	.
.	8C	8e-	.
.	8E-	8c	.
=118	=118	=118	=118
1r	8AA-	8f	1r
.	8C	8e-	.
.	8D	8d	.
.	8E-	8c	.
.	[2F	8B	.
.	.	8c	.
.	.	8d	.
.	.	8B	.
=119	=119	=119	=119
1r	8F]	2G	2.cc
.	8F	.	.
.	8E-	.	.
.	8D	.	.
.	8E-	2r	.
.	8G	.	.
.	[4c	.	8ee-
.	.	.	8cc
=120	=120	=120	=120
1r	4.c]	8r	4gg
.	.	8d	.
.	.	[4g	8dd
.	8B	.	8ff
.	4.c	8g]	4ee-
.	.	8d	.
.	.	[4e-	8gg
.	8B-	.	8ee-
=121	=121	=121	=121
1r	4.A	8e-]	4ff
.	.	8c	.
.	.	[4f	8cc
.	8A	.	8ee-
.	4.B-	8f]	4dd
.	.	8c	.
.	.	[4d	8ff
.	8A-	.	8dd
=122	=122	=122	=122
1r	8G	4d]	4bb
.	8B	.	.
.	8d	4b	2gg
.	8f	.	.
.	8e-	4cc	.
.	8c	.	.
.	8A-	4ee-	[4ccc
.	8c	.	.
=123	=123	=123	=123
1r	8F	[1dd	4ccc]
.	8A-	.	.
.	8d	.	8bb-
.	8f	.	8aa-
.	8B	.	4gg
.	8d	.	.
.	8G	.	4ff
.	8B	.	.
=124	=124	=124	=124
1r	8c	4dd]	2ee-
.	8B-	.	.
.	8A-	2cc	.
.	8c	.	.
.	8B-	.	4ee
.	8A-	.	.
.	8G	[4b-	4ff
.	8F	.	.
=125	=125	=125	=125
1r	8E	8b-]	2.gg
.	8F	8a-	.
.	8G	8g	.
.	8E	8b-	.
.	8F	[2a-	.
.	8E-	.	.
.	8D	.	[4ff
.	8C	.	.
=126	=126	=126	=126
1r	2BB	2a-]	8ff]
.	.	.	8ee-
.	.	.	8dd
.	.	.	8ff
.	4BB-	4.g	8ee-
.	.	.	8cc#
.	4B-	.	[4dd
.	.	8g#	.
=127	=127	=127	=127
1r	4F	8a	2.dd]
.	.	8g	.
.	4GG#	8b-	.
.	.	8a	.
.	2AA	8g	.
.	.	8f	.
.	.	8e	4cc#
.	.	8g	.
=128	=128	=128	=128
1r	8D	8f	4dd
.	8A	8e	.
.	8B	8d	4r
.	8c#	8e	.
.	[2d	2f	8r
.	.	.	8cc
.	.	.	8b-
.	.	.	8a
=129	=129	=129	=129
1r	4d]	2e	8g
.	.	.	8a
.	8G	.	[4b-
.	8F	.	.
.	4G	2e-	8b-]
.	.	.	8a
.	4A	.	8b-
.	.	.	8cc
=130	=130	=130	=130
1r	4B-	2d	8dd
.	.	.	8cc
.	4c	.	8dd
.	.	.	8ee
.	4d	[2b-	8ff
.	.	.	8ee
.	4e	.	8ff
.	.	.	8gg
=131	=131	=131	=131
1r	4f	2b-]	8cc
.	.	.	8dd
.	4c	.	8ee
.	.	.	8gg
.	[2f	2a	8ff
.	.	.	8ee
.	.	.	8dd
.	.	.	8cc
=132	=132	=132	=132
1r	2f]	1g	8b-
.	.	.	8a
.	.	.	8b-
.	.	.	8dd
.	[2e	.	8cc
.	.	.	8b-
.	.	.	8a
.	.	.	8g
=133	=133	=133	=133
1r	8e]	[1f	4a
.	8e	.	.
.	8d	.	8b
.	8c	.	8cc
.	8B	.	4dd
.	8c	.	.
.	8d	.	[4g
.	8B	.	.
=134	=134	=134	=134
2.C	2c	8f]	4g]
.	.	8f	.
.	.	8e	8a
.	.	8d	8b
.	[2G	8e	2cc
.	.	8d	.
8E	.	8c	.
8C	.	8e	.
=135	=135	=135	=135
4G	2G_	8d	2b
.	.	8e	.
8D	.	8f	.
8F	.	8d	.
4E	8G]	[2g	2b-
.	8A	.	.
8G	8B-	.	.
8E	8G	.	.
=136	=136	=136	=136
4F	[2c	8g]	2a
.	.	8f	.
8C	.	8e	.
8E	.	8g	.
4D	8c]	4f	[2ff
.	8B	.	.
8F	8A	4a	.
8D	8d	.	.
=137	=137	=137	=137
4B	4G	8dd	2ff]
.	.	8cc	.
2G	[4d	8b	.
.	.	8a	.
.	8d]	8g	2ee
.	8d	8f	.
[4c	8c	8g	.
.	8B	8e	.
=138	=138	=138	=138
4c]	8A	[2f	[1dd
.	8e	.	.
8B	8d	.	.
8A	8c	.	.
4G	[2B	8f]	.
.	.	8d	.
4F	.	8e	.
.	.	8f	.
=139	=139	=139	=139
[2E	8B]	[1g	8dd]
.	8B	.	8dd
.	8c	.	8ee
.	8d	.	8ff
8E]	[2e	.	8gg
8D	.	.	8b
8E	.	.	[4cc
8C	.	.	.
=140	=140	=140	=140
[2G	8e]	2g_	8cc]
.	8d	.	8b
.	8e	.	8cc
.	8c	.	8a
8G]	[2d	4g]	[2b
8GG	.	.	.
8BB	.	4f	.
8GG	.	.	.
=141	=141	=141	=141
[2C	8d]	[1e	8b]
.	8G	.	8b
.	8A	.	8cc
.	8B	.	8dd
8C]	[2c	.	8ee
8BB	.	.	8g#
8C	.	.	[4a
8AA	.	.	.
=142	=142	=142	=142
2E	8c]	2e_	8a]
.	8B	.	8g#
.	8c	.	8a
.	8A	.	8f#
2EE	2B	4e]	4.g#T
.	.	4d	.
.	.	.	8a
=143	=143	=143	=143
2AA	4A	2c#	2a
.	8E	.	.
.	8G	.	.
2r	4F#	2c	2r
.	8A	.	.
.	8F#	.	.
=144	=144	=144	=144
1r	4G	2B	2r
.	8D	.	.
.	8F	.	.
.	4E	[2g	8r
.	.	.	8ee
.	8G	.	8dd
.	8E	.	8ee
=145	=145	=145	=145
1r	4c#	2g]	8a
.	.	.	8b
.	2A	.	8cc#
.	.	.	8ee
.	.	2f	8dd
.	.	.	8cc
.	[4d	.	8b-
.	.	.	8a
=146	=146	=146	=146
1r	4d]	2e	8g
.	.	.	8a
.	2G	.	8b-
.	.	.	8dd
.	.	2e-	8cc
.	.	.	8b-
.	[4c	.	8a
.	.	.	8g
=147	=147	=147	=147
1D	4c]	1d	8f#
.	.	.	8g
.	4F#	.	8a
.	.	.	8cc
.	4G	.	8b-
.	.	.	8a
.	[4B-	.	8g
.	.	.	8f
=148	=148	=148	=148
2C#	4B-]	1r	8e
.	.	.	8f#
.	4E	.	8g
.	.	.	8b-
2C	4F#	.	8a
.	.	.	8g
.	[4A	.	8f#
.	.	.	8e
=149	=149	=149	=149
2BB-	8A]	1r	8d
.	8G	.	8e
.	8A	.	8f#
.	8c	.	8a
[2G	8B-	.	8g
.	8A	.	8f
.	8G	.	8e
.	8F	.	8d
=150	=150	=150	=150
2G]	8E	1r	4cc#
.	8D	.	.
.	8C#	.	2a
.	8E	.	.
2F	8D	.	.
.	8C	.	.
.	8BB-	.	[4dd
.	8AA	.	.
=151	=151	=151	=151
2E	8GG	1r	4dd]
.	8G	.	.
.	8A	.	8cc
.	8B-	.	8b-
2E-	[2c	.	8a
.	.	.	8b-
.	.	.	8g
.	.	.	8a
=152	=152	=152	=152
4D	1c]	1r	8f#
.	.	.	8a
4E	.	.	8g
.	.	.	8b-
4F#	.	.	8a
.	.	.	8g
4D	.	.	8f#
.	.	.	8e
=153	=153	=153	=153
4G	8B-	8d	1b-
.	8c	8e-	.
4GG	8d	8f	.
.	8f	8a-	.
[2G	8e-	8g	.
.	8d	8f	.
.	8c	8e-	.
.	8B-	8d	.
=154	=154	=154	=154
4G]	8c	2a	4e-
.	8d	.	.
8C	8e-	.	4r
8E-	8g	.	.
4D	8f	2a-	2r
.	8e-	.	.
8F	8d	.	.
8D	8c	.	.
=155	=155	=155	=155
4E-	8B-	2g	2r
.	8c	.	.
8BB-	8d	.	.
8D	8f	.	.
4C	8e-	[2ee-	4r
.	8d	.	.
8E-	8c	.	4gg
8C	8B-	.	.
=156	=156	=156	=156
4A	8c	2ee-]	8ff
.	8B-	.	8gg
2F	8c	.	8aa
.	8A	.	8ccc
.	8B-	2dd	8bb-
.	8c	.	8aa
[4B-	8d	.	8gg
.	8B-	.	8ff
=157	=157	=157	=157
4B-]	8g	[1cc	4ee
.	8c	.	.
8A	8d	.	8ff
8G	8e	.	8gg
4F	8f	.	4aa
.	8e	.	.
4E	8f	.	4gg
.	8g	.	.
=158	=158	=158	=158
2D	8a	8cc]	1ff
.	8g	8ee	.
.	8f	8dd	.
.	8e	8cc	.
2G	8d	8b	.
.	8c	8cc	.
.	4d	8a	.
.	.	8b	.
=159	=159	=159	=159
2C	4c	8cc	2ee
.	.	8a	.
.	8G	8b-	.
.	8B-	8g	.
8r	4A	[2f	2ee-
8F	.	.	.
8E-	8c	.	.
8F	8A	.	.
=160	=160	=160	=160
2BB-	4B-	8f]	2dd
.	.	8g	.
.	8F	8a	.
.	8A	8cc	.
8r	4G	4b-	[2bb-
8G	.	.	.
8F	8B-	4dd	.
8G	8G	.	.
=161	=161	=161	=161
4C	4e	8cc	2bb-]
.	.	8f	.
8E	2c	8g	.
8C	.	8e	.
4F	.	8f	2aa
.	.	8g	.
8D	[4f	4a	.
8F	.	.	.
=162	=162	=162	=162
4BB-	4f]	8dd	[1gg
.	.	8a	.
4GG	8e	8b-	.
.	8d	8g	.
4C	8c	4ee	.
.	8d	.	.
4CC	8B-	[4ee-	.
.	8c	.	.
=163	=163	=163	=163
1FF	8A	4ee-]	4gg]
.	8G	.	.
.	8A	4dd	8ff
.	8B-	.	8gg
.	8c	4cc	4aa
.	8B-	.	.
.	8A-	4dd	4bb
.	8B-	.	.
=164	=164	=164	=164
2EE	4G	8ee	4ccc
.	.	8c	.
.	4r	8e	8gg
.	.	8g	8bb-
2EE-	8r	2cc	4aa
.	8F	.	.
.	8A	.	8ccc
.	8c	.	8aa
=165	=165	=165	=165
2DD	4f	8r	4bb-
.	.	8dd	.
.	4r	8b-	8ff
.	.	8f	8aa
[2BB-	2r	8d	4gg
.	.	8c	.
.	.	8d	8bb-
.	.	8B-	8gg
=166	=166	=166	=166
2BB-]	8r	4G	4ee
.	8C	.	.
.	8E	4g	2cc
.	8G	.	.
2AA	8c	4f	.
.	8d	.	.
.	8c	4a	[4ff
.	8A	.	.
=167	=167	=167	=167
1GG	4d	8b-	4ff]
.	.	8a	.
.	4r	8g	8ee
.	.	8f	8dd
.	2r	8e	4cc
.	.	8f	.
.	.	8d	4b-
.	.	8e	.
=168	=168	=168	=168
4FF	8r	4f	4a
.	8d	.	.
4GG	8c	4e	4dd
.	8B-	.	.
4AA	8A	4r 4cc	[2f
.	8G	.	.
4BB-	8F	4d 4b-	.
.	8G	.	.
=169	=169	=169	=169
2C	8A	2c	2f] 2a
.	8B-	.	.
.	8G	.	.
.	8A	.	.
2CC	8B-	2c	2e 2g
.	8A	.	.
.	4B-	.	.
=170	=170	=170	=170
1FF	1A	1c	1f
==	==	==	==
*-	*-	*-	*-
